packages/icons/svg/Outline/file.svg

<svg fill="none" height="24" viewBox="0 0 24 24" width="24" xmlns="http://www.w3.org/2000/svg"><path clip-rule="evenodd" d="m17.4442 20.0001h-10.88899c-.306 0-.555-.224-.555-.5v-15.00003c0-.276.249-.5.555-.5h4.44499v4.14999c0 1.572 1.217 2.85004 2.714 2.85004h4.286v8.5c0 .276-.25.5-.556.5zm.205-11.00004h-3.935c-.394 0-.714-.381-.714-.85v-4.14999h.112zm2.091-.67206-5.444-6c-.189-.209-.458-.328-.741-.328h-6.99996c-1.409 0-2.555 1.122-2.555 2.5v15c0 1.378 1.146 2.5 2.555 2.5h10.88896c1.409 0 2.556-1.122 2.556-2.5v-10.5c0-.249-.093-.488-.26-.672z" fill="#6b7280" fill-rule="evenodd"/></svg>

<svg width="24" height="24" viewBox="0 0 24 24" fill="none" xmlns="http://www.w3.org/2000/svg">
<g id="Icon/Outline/file">
<path id="Mask" fill-rule="evenodd" clip-rule="evenodd" d="M17.4442 20H6.55524C6.24924 20 6.00024 19.776 6.00024 19.5V4.5C6.00024 4.224 6.24924 4 6.55524 4H11.0002V8.15C11.0002 9.722 12.2172 11 13.7142 11H18.0002V19.5C18.0002 19.776 17.7502 20 17.4442 20ZM17.6492 9H13.7142C13.3202 9 13.0002 8.619 13.0002 8.15V4H13.1122L17.6492 9ZM19.7402 8.328L14.2962 2.328C14.1072 2.119 13.8382 2 13.5552 2H6.55524C5.14624 2 4.00024 3.122 4.00024 4.5V19.5C4.00024 20.878 5.14624 22 6.55524 22H17.4442C18.8532 22 20.0002 20.878 20.0002 19.5V9C20.0002 8.751 19.9072 8.512 19.7402 8.328Z" fill="#000000"/>
</g>
</svg>
